src/alarmBtn.svg

<svg width="125" height="124" viewBox="0 0 125 124" fill="none" xmlns="http://www.w3.org/2000/svg">
<g filter="url(#filter0_d_3157_920)">
<rect x="3" width="102" height="107" rx="30" fill="#0538FF"/>
</g>
<path d="M15.529 32.04H22.69V33.184H15.529V32.04ZM14.451 34.625H23.669V35.813H14.451V34.625ZM15.529 27.53H22.602V28.707H17.014V32.359H15.529V27.53ZM16.563 29.774H22.371V30.907H16.563V29.774ZM24.8341 33.525H25.5491C26.7591 33.525 27.8261 33.503 29.0801 33.305L29.1901 34.482C27.8921 34.702 26.7921 34.735 25.5491 34.735H24.8341V33.525ZM24.8231 27.783H28.6841V31.721H26.2531V33.965H24.8341V30.566H27.2651V28.949H24.8231V27.783ZM31.9181 26.793H33.3041V36.979H31.9181V26.793ZM30.5541 30.643H32.2481V31.809H30.5541V30.643ZM29.6411 26.969H30.9941V36.495H29.6411V26.969ZM35.4813 27.068H43.0713V28.157H35.4813V27.068ZM35.5583 29.455H42.9943V30.544H35.5583V29.455ZM36.7793 27.497H38.2423V30.159H36.7793V27.497ZM40.3103 27.497H41.7733V30.159H40.3103V27.497ZM34.6783 31.072H43.8853V32.216H34.6783V31.072ZM35.7343 32.777H42.7743V35.307H37.1863V36.253H35.7453V34.328H41.3333V33.822H35.7343V32.777ZM35.7453 35.846H43.0383V36.913H35.7453V35.846ZM51.8594 26.782H53.3224V37.001H51.8594V26.782ZM50.2644 30.456H52.1564V31.633H50.2644V30.456ZM45.1494 33.437H45.9854C47.6354 33.437 48.9444 33.404 50.4184 33.151L50.5504 34.339C49.0434 34.592 47.6794 34.647 45.9854 34.647H45.1494V33.437ZM45.1274 27.651H49.7144V31.479H46.6014V33.8H45.1494V30.324H48.2734V28.817H45.1274V27.651ZM54.9276 30.742H64.1456V31.897H54.9276V30.742ZM56.0606 29.048H63.0566V30.192H56.0606V29.048ZM56.0606 26.98H62.9686V28.146H57.5126V30.038H56.0606V26.98ZM55.9726 32.469H63.0126V35.164H57.4246V36.044H55.9836V34.13H61.5716V33.569H55.9726V32.469ZM55.9836 35.78H63.2766V36.902H55.9836V35.78ZM68.3137 27.464C69.9197 27.464 71.1187 28.509 71.1187 29.972C71.1187 31.446 69.9197 32.491 68.3137 32.491C66.7187 32.491 65.4977 31.446 65.4977 29.972C65.4977 28.509 66.7187 27.464 68.3137 27.464ZM68.3137 28.718C67.5327 28.718 66.9387 29.18 66.9387 29.972C66.9387 30.775 67.5327 31.237 68.3137 31.237C69.0947 31.237 69.6887 30.775 69.6887 29.972C69.6887 29.18 69.0947 28.718 68.3137 28.718ZM72.0757 26.782H73.5387V37.001H72.0757V26.782ZM65.2557 34.933L65.0797 33.756C66.8727 33.756 69.3697 33.734 71.5147 33.415L71.6247 34.471C69.4137 34.911 67.0157 34.933 65.2557 34.933ZM21.436 49.793H22.91V54.941H21.436V49.793ZM16.112 55.392H22.91V58.153H17.564V59.176H16.134V57.097H21.458V56.503H16.112V55.392ZM16.134 58.78H23.163V59.913H16.134V58.78ZM16.827 50.024H18.037V50.794C18.037 52.675 17.091 54.38 15.1 54.985L14.396 53.83C16.101 53.313 16.827 52.037 16.827 50.794V50.024ZM17.124 50.024H18.323V50.794C18.323 52.004 19.038 53.192 20.699 53.665L19.995 54.798C18.037 54.226 17.124 52.631 17.124 50.794V50.024ZM27.0451 50.574H28.2331V52.059C28.2331 54.677 27.3311 57.042 25.3071 57.977L24.4381 56.767C26.2091 55.997 27.0451 54.039 27.0451 52.059V50.574ZM27.3311 50.574H28.5191V52.059C28.5191 53.94 29.3221 55.81 31.0601 56.558L30.2021 57.735C28.2331 56.833 27.3311 54.567 27.3311 52.059V50.574ZM31.5441 49.782H33.0181V60.001H31.5441V49.782ZM41.2233 49.793H42.6973V57.086H41.2233V49.793ZM42.2793 52.631H44.0503V53.83H42.2793V52.631ZM38.3853 50.552H39.9473C39.9473 53.324 38.2533 55.227 35.2173 56.107L34.6013 54.941C37.0983 54.259 38.3853 52.895 38.3853 51.278V50.552ZM35.0413 50.552H39.1773V51.729H35.0413V50.552ZM36.1083 58.637H43.0383V59.803H36.1083V58.637ZM36.1083 56.349H37.5823V59.154H36.1083V56.349ZM49.3519 51.74H50.4409V52.037C50.4409 53.654 49.7809 55.15 48.1859 55.744L47.5149 54.666C48.8019 54.171 49.3519 53.115 49.3519 52.037V51.74ZM49.6489 51.74H50.7269V52.037C50.7269 53.049 51.2879 54.028 52.5639 54.479L51.9149 55.557C50.3089 55.007 49.6489 53.588 49.6489 52.037V51.74ZM47.8009 50.904H52.2669V52.048H47.8009V50.904ZM49.3519 49.914H50.7269V51.487H49.3519V49.914ZM54.8189 49.804H56.2049V56.69H54.8189V49.804ZM53.6419 52.213H55.2589V53.401H53.6419V52.213ZM52.6959 49.958H54.0599V55.799H52.6959V49.958ZM51.9699 56.217H53.2129V56.371C53.2129 58.142 51.8049 59.583 49.2529 59.946L48.7359 58.813C50.9359 58.527 51.9699 57.416 51.9699 56.371V56.217ZM52.1789 56.217H53.4219V56.371C53.4219 57.416 54.4669 58.527 56.6559 58.813L56.1389 59.946C53.5869 59.583 52.1789 58.142 52.1789 56.371V56.217ZM62.2541 49.936C64.5751 49.936 65.9391 50.552 65.9391 51.674C65.9391 52.796 64.5751 53.412 62.2541 53.412C59.9221 53.412 58.5691 52.796 58.5691 51.674C58.5691 50.552 59.9221 49.936 62.2541 49.936ZM62.2541 51.003C60.7801 51.003 60.0871 51.223 60.0871 51.674C60.0871 52.147 60.7801 52.345 62.2541 52.345C63.7281 52.345 64.4211 52.147 64.4211 51.674C64.4211 51.223 63.7281 51.003 62.2541 51.003ZM57.6451 53.885H66.8521V55.04H57.6451V53.885ZM58.7011 55.612H65.7411V58.23H60.1531V59.132H58.7121V57.218H64.3001V56.701H58.7011V55.612ZM58.7121 58.813H66.0051V59.913H58.7121V58.813ZM75.0467 51.872H77.8187V53.049H75.0467V51.872ZM75.0467 55.029H77.8187V56.206H75.0467V55.029ZM73.2867 50.497C74.8047 50.497 75.9157 51.905 75.9157 54.127C75.9157 56.371 74.8047 57.779 73.2867 57.779C71.7577 57.779 70.6577 56.371 70.6577 54.127C70.6577 51.905 71.7577 50.497 73.2867 50.497ZM73.2867 51.828C72.5497 51.828 72.0437 52.631 72.0437 54.127C72.0437 55.645 72.5497 56.459 73.2867 56.459C74.0347 56.459 74.5297 55.645 74.5297 54.127C74.5297 52.631 74.0347 51.828 73.2867 51.828ZM77.5877 49.782H79.0397V60.001H77.5877V49.782ZM87.6299 49.793H89.1039V59.979H87.6299V49.793ZM84.6269 50.849H86.0789C86.0789 53.962 85.0229 56.514 81.4039 58.263L80.6449 57.097C83.5709 55.689 84.6269 53.841 84.6269 51.113V50.849ZM81.1839 50.849H85.3199V52.004H81.1839V50.849ZM95.868 52.972H98.552V54.149H95.868V52.972ZM93.096 50.574H94.284V52.048C94.284 54.611 93.415 56.976 91.501 57.933L90.588 56.756C92.326 55.953 93.096 53.984 93.096 52.048V50.574ZM93.404 50.574H94.57V52.048C94.57 53.984 95.307 55.843 96.99 56.591L96.121 57.757C94.207 56.833 93.404 54.589 93.404 52.048V50.574ZM97.826 49.782H99.278V60.001H97.826V49.782ZM16.75 77.446H18.213V78.909H16.75V77.446ZM21.062 72.804H22.525V79.734H21.062V72.804ZM22.008 75.708H23.801V76.907H22.008V75.708ZM14.484 79.536L14.319 78.403C16.145 78.403 18.554 78.392 20.611 78.139L20.721 79.14C18.598 79.503 16.266 79.525 14.484 79.536ZM15.617 80.141H22.525V82.979H21.062V81.263H15.617V80.141ZM14.583 73.541H20.358V74.586H14.583V73.541ZM17.476 74.828C18.972 74.828 19.951 75.411 19.951 76.346C19.951 77.281 18.972 77.864 17.476 77.864C15.969 77.864 14.99 77.281 14.99 76.346C14.99 75.411 15.969 74.828 17.476 74.828ZM17.476 75.785C16.783 75.785 16.376 75.961 16.376 76.346C16.376 76.709 16.783 76.907 17.476 76.907C18.158 76.907 18.565 76.709 18.565 76.346C18.565 75.961 18.158 75.785 17.476 75.785ZM16.75 72.716H18.213V74.014H16.75V72.716ZM31.5551 72.804H33.0291V80.119H31.5551V72.804ZM26.2421 81.637H33.2821V82.803H26.2421V81.637ZM26.2421 79.382H27.7051V82.11H26.2421V79.382ZM27.4851 73.442C29.0471 73.442 30.2461 74.52 30.2461 76.027C30.2461 77.523 29.0471 78.612 27.4851 78.612C25.9231 78.612 24.7131 77.523 24.7131 76.027C24.7131 74.52 25.9231 73.442 27.4851 73.442ZM27.4851 74.707C26.7261 74.707 26.1431 75.191 26.1431 76.027C26.1431 76.852 26.7261 77.336 27.4851 77.336C28.2331 77.336 28.8161 76.852 28.8161 76.027C28.8161 75.191 28.2331 74.707 27.4851 74.707ZM34.6673 74.322H39.5403V75.488H34.6673V74.322ZM37.1203 75.939C38.4183 75.939 39.3533 76.94 39.3533 78.37C39.3533 79.789 38.4183 80.79 37.1203 80.79C35.8333 80.79 34.8873 79.789 34.8873 78.37C34.8873 76.94 35.8333 75.939 37.1203 75.939ZM37.1203 77.16C36.5703 77.16 36.1853 77.6 36.1853 78.37C36.1853 79.14 36.5703 79.569 37.1203 79.569C37.6703 79.569 38.0663 79.14 38.0663 78.37C38.0663 77.6 37.6703 77.16 37.1203 77.16ZM42.0373 72.793H43.4343V82.979H42.0373V72.793ZM40.8163 76.929H42.4993V78.106H40.8163V76.929ZM39.9033 72.98H41.2673V82.55H39.9033V72.98ZM36.4053 73.068H37.8463V75.059H36.4053V73.068ZM44.8084 80.614H54.0264V81.802H44.8084V80.614ZM48.6694 78.436H50.1324V80.9H48.6694V78.436ZM45.7764 73.442H47.2284V75.004H51.5734V73.442H53.0254V78.744H45.7764V73.442ZM47.2284 76.148V77.578H51.5734V76.148H47.2284ZM58.9316 76.214H60.6146V77.402H58.9316V76.214ZM56.7536 73.673H57.8756V75.389C57.8756 77.699 57.2376 79.954 55.6096 80.955L54.7296 79.855C56.2256 78.931 56.7536 77.116 56.7536 75.389V73.673ZM57.0726 73.673H58.1726V75.323C58.1726 76.984 58.6016 78.678 59.9876 79.58L59.1956 80.724C57.5786 79.723 57.0726 77.523 57.0726 75.323V73.673ZM62.2756 72.793H63.6726V82.979H62.2756V72.793ZM60.2076 72.947H61.5716V82.517H60.2076V72.947ZM67.0707 77.963H68.5227V80.823H67.0707V77.963ZM70.7667 77.963H72.2297V80.823H70.7667V77.963ZM65.0467 80.614H74.2647V81.802H65.0467V80.614ZM69.6447 73.288C71.8337 73.288 73.4507 74.366 73.4507 76.027C73.4507 77.688 71.8337 78.755 69.6447 78.755C67.4447 78.755 65.8387 77.688 65.8387 76.027C65.8387 74.366 67.4447 73.288 69.6447 73.288ZM69.6447 74.432C68.2257 74.432 67.2797 75.015 67.2797 76.027C67.2797 77.028 68.2257 77.622 69.6447 77.622C71.0637 77.622 72.0097 77.028 72.0097 76.027C72.0097 75.015 71.0637 74.432 69.6447 74.432ZM79.9004 74L79.7715 79.6484H78.5137L78.3887 74H79.9004ZM79.1426 82.0859C78.9056 82.0859 78.7025 82.0026 78.5332 81.8359C78.3665 81.6693 78.2832 81.4661 78.2832 81.2266C78.2832 80.9922 78.3665 80.7917 78.5332 80.625C78.7025 80.4583 78.9056 80.375 79.1426 80.375C79.3743 80.375 79.5749 80.4583 79.7441 80.625C79.916 80.7917 80.002 80.9922 80.002 81.2266C80.002 81.3854 79.9616 81.5299 79.8809 81.6602C79.8027 81.7904 79.6986 81.8945 79.5684 81.9727C79.4408 82.0482 79.2988 82.0859 79.1426 82.0859Z" fill="white"/>
<circle cx="13" cy="10" r="10" fill="#EA0404"/>
<defs>
<filter id="filter0_d_3157_920" x="0" y="0" width="116" height="124" filterUnits="userSpaceOnUse" color-interpolation-filters="sRGB">
<feFlood flood-opacity="0" result="BackgroundImageFix"/>
<feColorMatrix in="SourceAlpha" type="matrix" values="0 0 0 0 0 0 0 0 0 0 0 0 0 0 0 0 0 0 127 0" result="hardAlpha"/>
<feOffset dx="4" dy="10"/>
<feGaussianBlur stdDeviation="3.5"/>
<feComposite in2="hardAlpha" operator="out"/>
<feColorMatrix type="matrix" values="0 0 0 0 0 0 0 0 0 0 0 0 0 0 0 0 0 0 0.1 0"/>
<feBlend mode="normal" in2="BackgroundImageFix" result="effect1_dropShadow_3157_920"/>
<feBlend mode="normal" in="SourceGraphic" in2="effect1_dropShadow_3157_920" result="shape"/>
</filter>
</defs>
</svg>

<svg xmlns="http://www.w3.org/2000/svg" width="125" height="124" fill="none"><g filter="url(#a)"><rect width="102" height="107" x="3" fill="#0538FF" rx="30"/></g><path fill="#fff" d="M15.529 32.04h7.161v1.144h-7.161zm-1.078 2.585h9.218v1.188h-9.218zm1.078-7.095h7.073v1.177h-5.588v3.652h-1.485zm1.034 2.244h5.808v1.133h-5.808zm8.271 3.751h.715c1.21 0 2.277-.022 3.531-.22l.11 1.177c-1.298.22-2.398.253-3.64.253h-.716zm-.01-5.742h3.86v3.938h-2.43v2.244h-1.42v-3.399h2.431v-1.617h-2.442zm7.094-.99h1.386v10.186h-1.386zm-1.364 3.85h1.694v1.166h-1.694zm-.913-3.674h1.353v9.526h-1.353zm5.84.099h7.59v1.089h-7.59zm.077 2.387h7.436v1.089h-7.436zm1.221-1.958h1.463v2.662H36.78zm3.531 0h1.463v2.662H40.31zm-5.632 3.575h9.207v1.144h-9.207zm1.056 1.705h7.04v2.53h-5.588v.946h-1.44v-1.925h5.587v-.506h-5.599zm.011 3.069h7.293v1.067h-7.293zm16.114-9.064h1.463v10.219H51.86zm-1.595 3.674h1.892v1.177h-1.892zm-5.115 2.981h.836c1.65 0 2.96-.033 4.433-.286l.132 1.188c-1.507.253-2.87.308-4.565.308h-.836zm-.022-5.786h4.587v3.828h-3.113V33.8H45.15v-3.476h3.124v-1.507h-3.146zm9.8 3.091h9.219v1.155h-9.218zm1.134-1.694h6.996v1.144H56.06zm0-2.068h6.908v1.166h-5.456v1.892H56.06zm-.088 5.489h7.04v2.695h-5.588v.88h-1.441V34.13h5.588v-.561h-5.6zm.01 3.311h7.294v1.122h-7.293zm12.33-8.316c1.607 0 2.806 1.045 2.806 2.508 0 1.474-1.2 2.519-2.805 2.519-1.595 0-2.816-1.045-2.816-2.519 0-1.463 1.22-2.508 2.816-2.508m0 1.254c-.78 0-1.374.462-1.374 1.254 0 .803.594 1.265 1.375 1.265.78 0 1.375-.462 1.375-1.265 0-.792-.594-1.254-1.375-1.254m3.763-1.936h1.463v10.219h-1.463zm-6.82 8.151-.176-1.177c1.793 0 4.29-.022 6.435-.341l.11 1.056c-2.211.44-4.61.462-6.37.462m-43.82 14.86h1.474v5.148h-1.474zm-5.324 5.599h6.798v2.761h-5.346v1.023h-1.43v-2.079h5.324v-.594h-5.346zm.022 3.388h7.029v1.133h-7.029zm.693-8.756h1.21v.77c0 1.881-.946 3.586-2.937 4.191l-.704-1.155c1.705-.517 2.431-1.793 2.431-3.036zm.297 0h1.199v.77c0 1.21.715 2.398 2.376 2.871l-.704 1.133c-1.958-.572-2.871-2.167-2.871-4.004zm9.921.55h1.188v1.485c0 2.618-.902 4.983-2.926 5.918l-.869-1.21c1.771-.77 2.607-2.728 2.607-4.708zm.286 0h1.188v1.485c0 1.881.803 3.751 2.541 4.499l-.858 1.177c-1.969-.902-2.87-3.168-2.87-5.676zm4.213-.792h1.474v10.219h-1.474zm9.68.011h1.473v7.293h-1.474zm1.055 2.838h1.771v1.199h-1.77zm-3.894-2.079h1.562c0 2.772-1.694 4.675-4.73 5.555l-.616-1.166c2.497-.682 3.784-2.046 3.784-3.663zm-3.344 0h4.136v1.177h-4.136zm1.067 8.085h6.93v1.166h-6.93zm0-2.288h1.474v2.805h-1.474zm13.244-4.609h1.089v.297c0 1.617-.66 3.113-2.255 3.707l-.671-1.078c1.287-.495 1.837-1.551 1.837-2.629zm.297 0h1.078v.297c0 1.012.56 1.991 1.837 2.442l-.65 1.078c-1.605-.55-2.265-1.969-2.265-3.52zm-1.848-.836h4.466v1.144H47.8zm1.55-.99h1.376v1.573h-1.375zm5.468-.11h1.386v6.886h-1.386zm-1.177 2.409h1.617v1.188h-1.617zm-.946-2.255h1.364v5.841h-1.364zm-.726 6.259h1.243v.154c0 1.771-1.408 3.212-3.96 3.575l-.517-1.133c2.2-.286 3.234-1.397 3.234-2.442zm.209 0h1.243v.154c0 1.045 1.045 2.156 3.234 2.442l-.517 1.133c-2.552-.363-3.96-1.804-3.96-3.575zm10.075-6.281c2.321 0 3.685.616 3.685 1.738s-1.364 1.738-3.685 1.738c-2.332 0-3.685-.616-3.685-1.738s1.353-1.738 3.685-1.738m0 1.067c-1.474 0-2.167.22-2.167.671 0 .473.693.671 2.167.671s2.167-.198 2.167-.671c0-.451-.693-.671-2.167-.671m-4.609 2.882h9.207v1.155h-9.207zm1.056 1.727h7.04v2.618h-5.588v.902h-1.44v-1.914H64.3v-.517h-5.599zm.011 3.201h7.293v1.1h-7.293zm16.335-6.941h2.772v1.177h-2.772zm0 3.157h2.772v1.177h-2.772zm-1.76-4.532c1.518 0 2.629 1.408 2.629 3.63 0 2.244-1.111 3.652-2.63 3.652-1.528 0-2.628-1.408-2.628-3.652 0-2.222 1.1-3.63 2.629-3.63m0 1.331c-.737 0-1.243.803-1.243 2.299 0 1.518.506 2.332 1.243 2.332.748 0 1.243-.814 1.243-2.332 0-1.496-.495-2.299-1.243-2.299m4.3-2.046h1.453v10.219h-1.452zm10.043.011h1.474v10.186H87.63zm-3.003 1.056h1.452c0 3.113-1.056 5.665-4.675 7.414l-.76-1.166c2.927-1.408 3.983-3.256 3.983-5.984zm-3.443 0h4.136v1.155h-4.136zm14.684 2.123h2.684v1.177h-2.684zm-2.772-2.398h1.188v1.474c0 2.563-.869 4.928-2.783 5.885l-.913-1.177c1.738-.803 2.508-2.772 2.508-4.708zm.308 0h1.166v1.474c0 1.936.737 3.795 2.42 4.543l-.869 1.166c-1.914-.924-2.717-3.168-2.717-5.709zm4.422-.792h1.452v10.219h-1.452zM16.75 77.446h1.463v1.463H16.75zm4.312-4.642h1.463v6.93h-1.463zm.946 2.904h1.793v1.199h-1.793zm-7.524 3.828-.165-1.133c1.826 0 4.235-.011 6.292-.264l.11 1.001c-2.123.363-4.455.385-6.237.396m1.133.605h6.908v2.838h-1.463v-1.716h-5.445zm-1.034-6.6h5.775v1.045h-5.775zm2.893 1.287c1.496 0 2.475.583 2.475 1.518s-.979 1.518-2.475 1.518c-1.507 0-2.486-.583-2.486-1.518s.979-1.518 2.486-1.518m0 .957c-.693 0-1.1.176-1.1.561 0 .363.407.561 1.1.561.682 0 1.089-.198 1.089-.561 0-.385-.407-.561-1.089-.561m-.726-3.069h1.463v1.298H16.75zm14.805.088h1.474v7.315h-1.474zm-5.313 8.833h7.04v1.166h-7.04zm0-2.255h1.463v2.728h-1.463zm1.243-5.94c1.562 0 2.761 1.078 2.761 2.585 0 1.496-1.199 2.585-2.76 2.585-1.563 0-2.773-1.089-2.773-2.585 0-1.507 1.21-2.585 2.772-2.585m0 1.265c-.759 0-1.342.484-1.342 1.32 0 .825.583 1.309 1.342 1.309.748 0 1.331-.484 1.331-1.309 0-.836-.583-1.32-1.33-1.32m7.182-.385h4.873v1.166h-4.873zm2.453 1.617c1.298 0 2.233 1.001 2.233 2.431 0 1.419-.935 2.42-2.233 2.42-1.287 0-2.233-1.001-2.233-2.42 0-1.43.946-2.431 2.233-2.431m0 1.221c-.55 0-.935.44-.935 1.21s.385 1.199.935 1.199.946-.429.946-1.199-.396-1.21-.946-1.21m4.917-4.367h1.397v10.186h-1.397zm-1.22 4.136h1.682v1.177h-1.683zm-.914-3.949h1.364v9.57h-1.364zm-3.498.088h1.441v1.991h-1.44zm8.403 7.546h9.218v1.188h-9.218zm3.861-2.178h1.463V80.9H48.67zm-2.893-4.994h1.452v1.562h4.345v-1.562h1.452v5.302h-7.249zm1.452 2.706v1.43h4.345v-1.43zm11.704.066h1.683v1.188h-1.683zm-2.178-2.541h1.122v1.716c0 2.31-.638 4.565-2.266 5.566l-.88-1.1c1.496-.924 2.024-2.739 2.024-4.466zm.319 0h1.1v1.65c0 1.661.429 3.355 1.815 4.257l-.792 1.144c-1.617-1.001-2.123-3.201-2.123-5.401zm5.203-.88h1.397v10.186h-1.397zm-2.068.154h1.364v9.57h-1.364zm6.863 5.016h1.452v2.86H67.07zm3.696 0h1.463v2.86h-1.463zm-5.72 2.651h9.218v1.188h-9.218zm4.598-7.326c2.189 0 3.806 1.078 3.806 2.739s-1.617 2.728-3.806 2.728c-2.2 0-3.806-1.067-3.806-2.728s1.606-2.739 3.806-2.739m0 1.144c-1.42 0-2.365.583-2.365 1.595 0 1.001.946 1.595 2.365 1.595s2.365-.594 2.365-1.595c0-1.012-.946-1.595-2.365-1.595M79.9 74l-.129 5.648h-1.257L78.389 74zm-.757 8.086a.84.84 0 0 1-.61-.25.83.83 0 0 1-.25-.61.82.82 0 0 1 .25-.601.84.84 0 0 1 .61-.25q.347 0 .601.25a.8.8 0 0 1 .258.602q0 .237-.121.433a.9.9 0 0 1-.313.313.8.8 0 0 1-.425.113"/><circle cx="13" cy="10" r="10" fill="#EA0404"/><defs><filter id="a" width="116" height="124" x="0" y="0" color-interpolation-filters="sRGB" filterUnits="userSpaceOnUse"><feFlood flood-opacity="0" result="BackgroundImageFix"/><feColorMatrix in="SourceAlpha" result="hardAlpha" values="0 0 0 0 0 0 0 0 0 0 0 0 0 0 0 0 0 0 127 0"/><feOffset dx="4" dy="10"/><feGaussianBlur stdDeviation="3.5"/><feComposite in2="hardAlpha" operator="out"/><feColorMatrix values="0 0 0 0 0 0 0 0 0 0 0 0 0 0 0 0 0 0 0.1 0"/><feBlend in2="BackgroundImageFix" result="effect1_dropShadow_3157_920"/><feBlend in="SourceGraphic" in2="effect1_dropShadow_3157_920" result="shape"/></filter></defs></svg>
